www/assets/icons/church.svg

<svg xmlns="http://www.w3.org/2000/svg" width="24" height="24" viewBox="0 0 24 24" fill='currentColor'><path d="M18 12.72V9.5L13 7V5.5h2v-2h-2v-2h-2v2H9v2h2V7L6 9.5v3.22L2 14.5v8h8v-3c0-1.1.9-2 2-2s2 .9 2 2v3h8v-8zM12 14c-.83 0-1.5-.67-1.5-1.5S11.17 11 12 11s1.5.67 1.5 1.5S12.83 14 12 14"/></svg>

<svg width="24" height="24" viewBox="0 0 24 24" xmlns="http://www.w3.org/2000/svg" fill='currentColor'><path d="M18 12.72V9.5L13 7V5.5H15V3.5H13V1.5H11V3.5H9V5.5H11V7L6 9.5V12.72L2 14.5V22.5H10V19.5C10 18.4 10.9 17.5 12 17.5C13.1 17.5 14 18.4 14 19.5V22.5H22V14.5L18 12.72ZM12 14C11.17 14 10.5 13.33 10.5 12.5C10.5 11.67 11.17 11 12 11C12.83 11 13.5 11.67 13.5 12.5C13.5 13.33 12.83 14 12 14Z"/></svg>
